X:1

T:Devonshire Hornpipe, The [1]

M:4/4

L:1/8

S:Wilson's Companion to the Ballroom 1816

Z:Paul Kinder

R:Hornpipe

K:G

d2|g2 fe edcB|cecA GFED|B,DGD cBAG|F2 D2 D2 d2|

g2 fe edcB|cecA GFED|B,DGD EGcA|B2 G2 G2:|

|:d2|dcBc de=fd|egBd c2 z e|ed^cd e^fga|fa^ce d2 z d|

g2 g2 gdBd|g2 g2 gece|gdBG EGcA|B2 G2 G2:||

                       

DEVONSHIRE REEL [1], THE. AKA and see "Brian Boru’s March [1]," "Colonel McBain’s," "Dan Sullivan's Reel," "The Duke of Clarence Reel," "General McBean," "Sean Frank," "Sporting Molly."

 

DEVONSHIRE REEL [2], THE. English, Reel. C Major. Standard tuning. AAB. Source for notated version: the 1845-47 music manuscript of Ellis Knowles, a musician from Radcliffe, Lancashire, England [Plain Brown]. Plain Brown Tune Book, 1997; pg. 14.

